evolvere-2-blue-mono/apps/16/distributor-logo-arch-linux.svg

<?xml version="1.0" encoding="UTF-8" standalone="no"?>
<!-- Created with Inkscape (http://www.inkscape.org/) -->

<svg
   xmlns:a="http://ns.adobe.com/AdobeSVGViewerExtensions/3.0/"
   xmlns:i="http://ns.adobe.com/AdobeIllustrator/10.0/"
   xmlns:dc="http://purl.org/dc/elements/1.1/"
   xmlns:cc="http://creativecommons.org/ns#"
   xmlns:rdf="http://www.w3.org/1999/02/22-rdf-syntax-ns#"
   xmlns:svg="http://www.w3.org/2000/svg"
   xmlns="http://www.w3.org/2000/svg"
   xmlns:xlink="http://www.w3.org/1999/xlink"
   xmlns:sodipodi="http://sodipodi.sourceforge.net/DTD/sodipodi-0.dtd"
   xmlns:inkscape="http://www.inkscape.org/namespaces/inkscape"
   width="16"
   height="16"
   id="svg2"
   version="1.1"
   inkscape:version="0.48.3.1 r9886"
   sodipodi:docname="distributor-logo-arch-linux.svg"
   inkscape:export-filename="/home/anton/.kde4/share/apps/desktoptheme/appo/icons/nepomuk.png"
   inkscape:export-xdpi="90"
   inkscape:export-ydpi="90">
  <sodipodi:namedview
     id="base"
     pagecolor="#ffffff"
     bordercolor="#666666"
     borderopacity="1.0"
     inkscape:pageopacity="0.0"
     inkscape:pageshadow="2"
     inkscape:zoom="32"
     inkscape:cx="6.9946925"
     inkscape:cy="6.7488737"
     inkscape:document-units="px"
     inkscape:current-layer="klipper"
     showgrid="true"
     inkscape:window-width="1920"
     inkscape:window-height="1023"
     inkscape:window-x="-10"
     inkscape:window-y="35"
     inkscape:window-maximized="1"
     inkscape:snap-grids="true"
     showguides="true"
     inkscape:guide-bbox="true"
     inkscape:snap-bbox="true"
     inkscape:object-paths="true"
     inkscape:snap-global="true"
     inkscape:bbox-paths="true"
     inkscape:bbox-nodes="true"
     inkscape:snap-bbox-edge-midpoints="true"
     inkscape:snap-bbox-midpoints="true"
     inkscape:snap-intersection-paths="true"
     inkscape:object-nodes="true"
     inkscape:snap-smooth-nodes="true"
     inkscape:snap-midpoints="true"
     inkscape:snap-object-midpoints="true"
     inkscape:snap-center="true">
    <inkscape:grid
       snapvisiblegridlinesonly="true"
       enabled="true"
       visible="true"
       empspacing="5"
       id="grid2818"
       type="xygrid" />
  </sodipodi:namedview>
  <defs
     id="defs4">
    <inkscape:path-effect
       effect="spiro"
       id="path-effect3094"
       is_visible="true" />
    <mask
       maskUnits="userSpaceOnUse"
       x="122.963"
       y="97.149"
       width="576.609"
       height="587.491"
       id="XMLID_23_"
       i:invertMask="false"
       i:clipMask="true">
      <g
         style="filter:url(#Adobe_OpacityMaskFilter)"
         id="g37">
        <radialGradient
           id="XMLID_24_"
           cx="88.977501"
           cy="-20.899401"
           r="673.11609"
           fx="88.977501"
           fy="-20.899401"
           gradientUnits="userSpaceOnUse">
          <stop
             offset="0.309"
             style="stop-color:#FFFFFF"
             id="stop40" />
          <stop
             offset="1"
             style="stop-color:#000000"
             id="stop42" />
          <a:midPointStop
             offset="0.309"
             style="stop-color:#FFFFFF" />
          <a:midPointStop
             offset="0.5"
             style="stop-color:#FFFFFF" />
          <a:midPointStop
             offset="1"
             style="stop-color:#000000" />
        </radialGradient>
        <ellipse
           style="fill:url(#XMLID_24_)"
           sodipodi:ry="349.10599"
           sodipodi:rx="512.93402"
           sodipodi:cy="286.172"
           sodipodi:cx="295.89499"
           i:knockout="Off"
           cx="295.89499"
           cy="286.172"
           rx="512.93402"
           ry="349.10599"
           id="ellipse44" />
      </g>
    </mask>
    <filter
       color-interpolation-filters="sRGB"
       id="Adobe_OpacityMaskFilter"
       filterUnits="userSpaceOnUse"
       x="122.963"
       y="97.149002"
       width="576.60901"
       height="587.49103">
      <feColorMatrix
         type="matrix"
         values="1 0 0 0 0  0 1 0 0 0  0 0 1 0 0  0 0 0 1 0"
         id="feColorMatrix34" />
    </filter>
    <mask
       maskUnits="userSpaceOnUse"
       x="155.705"
       y="461.543"
       width="93.126"
       height="44.813"
       id="XMLID_26_"
       i:invertMask="false"
       i:clipMask="true">
      <g
         style="filter:url(#Adobe_OpacityMaskFilter_1_)"
         id="g75">
        <linearGradient
           id="XMLID_1_"
           gradientUnits="userSpaceOnUse"
           x1="211.7222"
           y1="562.85791"
           x2="200.0733"
           y2="466.75449">
          <stop
             offset="0"
             style="stop-color:#FFFFFF"
             id="stop78" />
          <stop
             offset="1"
             style="stop-color:#000000"
             id="stop80" />
          <a:midPointStop
             offset="0"
             style="stop-color:#FFFFFF" />
          <a:midPointStop
             offset="0.5"
             style="stop-color:#FFFFFF" />
          <a:midPointStop
             offset="1"
             style="stop-color:#000000" />
        </linearGradient>
        <ellipse
           style="fill:url(#XMLID_1_)"
           sodipodi:ry="59.682999"
           sodipodi:rx="80.542"
           sodipodi:cy="495.98801"
           sodipodi:cx="203.617"
           i:knockout="Off"
           cx="203.617"
           cy="495.98801"
           rx="80.542"
           ry="59.682999"
           id="ellipse82" />
      </g>
    </mask>
    <filter
       color-interpolation-filters="sRGB"
       id="Adobe_OpacityMaskFilter_1_"
       filterUnits="userSpaceOnUse"
       x="155.705"
       y="461.543"
       width="93.125999"
       height="44.813">
      <feColorMatrix
         type="matrix"
         values="1 0 0 0 0  0 1 0 0 0  0 0 1 0 0  0 0 0 1 0"
         id="feColorMatrix72" />
    </filter>
    <mask
       maskUnits="userSpaceOnUse"
       x="101.57"
       y="425.034"
       width="156.907"
       height="127.553"
       id="XMLID_2_"
       i:invertMask="false"
       i:clipMask="true">
      <g
         style="filter:url(#Adobe_OpacityMaskFilter_2_)"
         id="g92">
        <linearGradient
           id="XMLID_3_"
           gradientUnits="userSpaceOnUse"
           x1="206.09081"
           y1="397.62061"
           x2="186.92191"
           y2="563.47321">
          <stop
             offset="0"
             style="stop-color:#FFFFFF"
             id="stop95" />
          <stop
             offset="0.1111"
             style="stop-color:#CBCBCB"
             id="stop97" />
          <stop
             offset="0.2396"
             style="stop-color:#969696"
             id="stop99" />
          <stop
             offset="0.3698"
             style="stop-color:#686868"
             id="stop101" />
          <stop
             offset="0.4991"
             style="stop-color:#424242"
             id="stop103" />
          <stop
             offset="0.6273"
             style="stop-color:#252525"
             id="stop105" />
          <stop
             offset="0.7542"
             style="stop-color:#111111"
             id="stop107" />
          <stop
             offset="0.8792"
             style="stop-color:#040404"
             id="stop109" />
          <stop
             offset="1"
             style="stop-color:#000000"
             id="stop111" />
          <a:midPointStop
             offset="0"
             style="stop-color:#FFFFFF" />
          <a:midPointStop
             offset="0.2994"
             style="stop-color:#FFFFFF" />
          <a:midPointStop
             offset="1"
             style="stop-color:#000000" />
        </linearGradient>
        <ellipse
           style="fill:url(#XMLID_3_)"
           sodipodi:ry="123.604"
           sodipodi:rx="160.94"
           sodipodi:cy="495.62299"
           sodipodi:cx="194.76401"
           i:knockout="Off"
           cx="194.76401"
           cy="495.62299"
           rx="160.94"
           ry="123.604"
           id="ellipse113" />
      </g>
    </mask>
    <filter
       color-interpolation-filters="sRGB"
       id="Adobe_OpacityMaskFilter_2_"
       filterUnits="userSpaceOnUse"
       x="101.57"
       y="425.034"
       width="156.907"
       height="127.553">
      <feColorMatrix
         type="matrix"
         values="1 0 0 0 0  0 1 0 0 0  0 0 1 0 0  0 0 0 1 0"
         id="feColorMatrix89" />
    </filter>
    <mask
       maskUnits="userSpaceOnUse"
       x="191.541"
       y="217.631"
       width="447.197"
       height="527.73"
       id="XMLID_10_"
       i:invertMask="false"
       i:clipMask="true">
      <g
         style="filter:url(#Adobe_OpacityMaskFilter_3_)"
         id="g165">
        <radialGradient
           id="XMLID_11_"
           cx="657.2124"
           cy="155.23289"
           r="606.95343"
           fx="657.2124"
           fy="155.23289"
           gradientTransform="matrix(0.931,0,0,0.9299,28.7459,21.6629)"
           gradientUnits="userSpaceOnUse">
          <stop
             offset="0"
             style="stop-color:#C9C9C8"
             id="stop168" />
          <stop
             offset="0.0881"
             style="stop-color:#C4C4C4"
             id="stop170" />
          <stop
             offset="0.2192"
             style="stop-color:#B8B8B7"
             id="stop172" />
          <stop
             offset="0.3769"
             style="stop-color:#A1A0A0"
             id="stop174" />
          <stop
             offset="0.5556"
             style="stop-color:#7F7F7E"
             id="stop176" />
          <stop
             offset="0.7517"
             style="stop-color:#4F4F4E"
             id="stop178" />
          <stop
             offset="0.9595"
             style="stop-color:#121212"
             id="stop180" />
          <stop
             offset="1"
             style="stop-color:#000000"
             id="stop182" />
          <a:midPointStop
             offset="0"
             style="stop-color:#C9C9C8" />
          <a:midPointStop
             offset="0.6215"
             style="stop-color:#C9C9C8" />
          <a:midPointStop
             offset="1"
             style="stop-color:#000000" />
        </radialGradient>
        <circle
           style="fill:url(#XMLID_11_)"
           sodipodi:ry="302.95401"
           sodipodi:rx="302.95401"
           sodipodi:cy="444.22601"
           sodipodi:cx="408.427"
           i:knockout="Off"
           cx="408.427"
           cy="444.22601"
           r="302.95401"
           id="circle184" />
      </g>
    </mask>
    <filter
       color-interpolation-filters="sRGB"
       id="Adobe_OpacityMaskFilter_3_"
       filterUnits="userSpaceOnUse"
       x="191.541"
       y="217.631"
       width="447.19699"
       height="527.72998">
      <feColorMatrix
         type="matrix"
         values="1 0 0 0 0  0 1 0 0 0  0 0 1 0 0  0 0 0 1 0"
         id="feColorMatrix162" />
    </filter>
    <mask
       maskUnits="userSpaceOnUse"
       x="243.061"
       y="279.317"
       width="252.506"
       height="187.183"
       id="XMLID_13_"
       i:invertMask="false"
       i:clipMask="true">
      <g
         style="filter:url(#Adobe_OpacityMaskFilter_4_)"
         id="g199">
        <linearGradient
           id="XMLID_14_"
           gradientUnits="userSpaceOnUse"
           x1="340.0488"
           y1="266.93359"
           x2="372.38071"
           y2="417.81519">
          <stop
             offset="0"
             style="stop-color:#FFFFFF"
             id="stop202" />
          <stop
             offset="0.0867"
             style="stop-color:#F8F8F8"
             id="stop204" />
          <stop
             offset="0.2156"
             style="stop-color:#E4E4E4"
             id="stop206" />
          <stop
             offset="0.3708"
             style="stop-color:#C2C2C2"
             id="stop208" />
          <stop
             offset="0.5465"
             style="stop-color:#949494"
             id="stop210" />
          <stop
             offset="0.7394"
             style="stop-color:#595959"
             id="stop212" />
          <stop
             offset="0.9438"
             style="stop-color:#151515"
             id="stop214" />
          <stop
             offset="0.9944"
             style="stop-color:#000000"
             id="stop216" />
          <a:midPointStop
             offset="0"
             style="stop-color:#FFFFFF" />
          <a:midPointStop
             offset="0.6215"
             style="stop-color:#FFFFFF" />
          <a:midPointStop
             offset="0.9944"
             style="stop-color:#000000" />
        </linearGradient>
        <ellipse
           style="fill:url(#XMLID_14_)"
           sodipodi:ry="183.32201"
           sodipodi:rx="215.32401"
           sodipodi:cy="374.28201"
           sodipodi:cx="363.052"
           i:knockout="Off"
           cx="363.052"
           cy="374.28201"
           rx="215.32401"
           ry="183.32201"
           id="ellipse218" />
      </g>
    </mask>
    <filter
       color-interpolation-filters="sRGB"
       id="Adobe_OpacityMaskFilter_4_"
       filterUnits="userSpaceOnUse"
       x="243.061"
       y="279.31699"
       width="252.506"
       height="187.183">
      <feColorMatrix
         type="matrix"
         values="1 0 0 0 0  0 1 0 0 0  0 0 1 0 0  0 0 0 1 0"
         id="feColorMatrix196" />
    </filter>
    <radialGradient
       r="16"
       fy="25.466665"
       fx="31.589743"
       cy="25.466665"
       cx="31.589743"
       gradientTransform="matrix(1.5556993e-5,0.75036639,-0.73112625,1.5158096e-5,14.825732,1005.0642)"
       gradientUnits="userSpaceOnUse"
       id="radialGradient3086"
       xlink:href="#linearGradient3036"
       inkscape:collect="always" />
    <linearGradient
       id="linearGradient3036">
      <stop
         id="stop3038"
         style="stop-color:#616d55;stop-opacity:1;"
         offset="0" />
      <stop
         id="stop3040"
         style="stop-color:#505948;stop-opacity:1;"
         offset="1" />
    </linearGradient>
    <radialGradient
       inkscape:collect="always"
       xlink:href="#linearGradient4158"
       id="radialGradient3065"
       gradientUnits="userSpaceOnUse"
       gradientTransform="matrix(-1.7060509e-8,1.5600001,-1.5200002,3.1496605e-5,33.12881,-0.01830563)"
       cx="10.909154"
       cy="0.74263746"
       fx="10.909154"
       fy="0.74263746"
       r="25" />
    <linearGradient
       id="linearGradient4158">
      <stop
         offset="0"
         style="stop-color:#8bb44e;stop-opacity:1;"
         id="stop4160" />
      <stop
         offset="1"
         style="stop-color:#6c8e49;stop-opacity:1;"
         id="stop4162" />
    </linearGradient>
    <radialGradient
       r="25"
       fy="0.74263746"
       fx="10.909154"
       cy="0.74263746"
       cx="10.909154"
       gradientTransform="matrix(0,0.48023448,-0.4679208,9.6959966e-6,5.0396529,-1.1654)"
       gradientUnits="userSpaceOnUse"
       id="radialGradient3026"
       xlink:href="#linearGradient4158"
       inkscape:collect="always" />
  </defs>
  <metadata
     id="metadata7">
    <rdf:RDF>
      <cc:Work
         rdf:about="">
        <dc:format>image/svg+xml</dc:format>
        <dc:type
           rdf:resource="http://purl.org/dc/dcmitype/StillImage" />
        <dc:title />
      </cc:Work>
    </rdf:RDF>
  </metadata>
  <g
     transform="translate(8.4852817,-1024.6949)"
     id="klipper"
     inkscape:groupmode="layer"
     inkscape:label="Layer 1">
    <path
       id="path3861"
       d="m -0.4852817,1025.6949 -2,4 1,0 0,1 -1.5,0 -4.5,9 5.46875,-2.1562 c -1.0515996,-1.8215 0.3768953,-2.9063 1.53125,-2.9063 1.1543547,0 2.58285,1.0848 1.53125,2.9063 l 5.46875,2.1562 -1.5,-3 -1.5,0 0,-1 1,0 -5,-10 z"
       style="color:#000000;fill:#27303a;fill-opacity:0.753280819999999968;fill-rule:nonzero;stroke:none;stroke-width:2;marker:none;visibility:visible;display:inline;overflow:visible;enable-background:accumulate"
       inkscape:connector-curvature="0" />
    <path
       style="font-size:medium;font-style:normal;font-variant:normal;font-weight:normal;font-stretch:normal;text-indent:0;text-align:start;text-decoration:none;line-height:normal;letter-spacing:normal;word-spacing:normal;text-transform:none;direction:ltr;block-progression:tb;writing-mode:lr-tb;text-anchor:start;baseline-shift:baseline;color:#000000;fill:#f1f3f5;fill-opacity:0.90288714000000003;fill-rule:nonzero;stroke:none;stroke-width:2;marker:none;visibility:visible;display:inline;overflow:visible;enable-background:accumulate;font-family:Sans;-inkscape-font-specification:Sans"
       d="m 8,-1.6875 -1.0625,2.15625 -2,4 L 4.75,4.8125 4.4375,5.46875 4.0625,6.1875 -0.0625,14.46875 -1.46875,17.25 1.4375,16.125 6.90625,13.96875 8,13.53125 l 1.09375,0.4375 5.46875,2.15625 2.90625,1.125 -1.40625,-2.78125 -1.125,-2.28125 -0.375,-0.71875 -0.125,-0.28125 -0.1875,-0.375 -0.1875,-0.34375 -5,-10 z M 8,1 l 5,10 -1,0 0,1 1.5,0 1.5,3 -5.46875,-2.15625 C 10.58285,11.02225 9.1543547,9.9375 8,9.9375 c -1.1543547,0 -2.5828496,1.08475 -1.53125,2.90625 L 1,15 5.5,6 7,6 7,5 6,5 z"
       transform="translate(-8.4852817,1024.6949)"
       id="path3062"
       inkscape:connector-curvature="0"
       sodipodi:nodetypes="cccccccccccccccccccccccccccccsccccccc" />
  </g>
</svg>

<?xml version="1.0" encoding="UTF-8"?>
<svg width="16" height="16" version="1.1" xmlns="http://www.w3.org/2000/svg" xmlns:cc="http://creativecommons.org/ns#" xmlns:dc="http://purl.org/dc/elements/1.1/" xmlns:rdf="http://www.w3.org/1999/02/22-rdf-syntax-ns#">
	<defs>
		<style id="current-color-scheme" type="text/css">.ColorScheme-Text {color:#090d11;}.ColorScheme-Background{color:#ffffff;}</style>
	</defs>
	<metadata>
		<rdf:RDF>
			<cc:Work rdf:about="">
				<dc:format>image/svg+xml</dc:format>
				<dc:type rdf:resource="http://purl.org/dc/dcmitype/StillImage"/>
			</cc:Work>
		</rdf:RDF>
	</metadata>
	<path class="ColorScheme-Text" d="m8 1-2 4h1v1h-1.5l-4.5 9 5.4688-2.1562c-1.0516-1.8215 0.3769-2.9062 1.5312-2.9062s2.5828 1.0848 1.5312 2.9062l5.4688 2.1562-1.5-3h-1.5v-1h1z" style="fill-opacity:.75;fill:currentColor"/>
	<path class="ColorScheme-Background" d="m8-1.6875-1.0625 2.1562-2 4-0.1875 0.34375-0.3125 0.65625-0.375 0.71875-4.125 8.2812-1.4062 2.7812 2.9062-1.125 5.4688-2.1562 1.0938-0.4375 1.0938 0.4375 5.4688 2.1562 2.9062 1.125-1.4062-2.7812-1.125-2.2812-0.375-0.71875-0.125-0.28125-0.1875-0.375-0.1875-0.34375-5-10zm0 2.6875 5 10h-1v1h1.5l1.5 3-5.4688-2.1562c1.0516-1.8215-0.3769-2.9062-1.5312-2.9062s-2.5828 1.0848-1.5312 2.9062l-5.4688 2.1562 4.5-9h1.5v-1h-1z" style="fill-opacity:.5;fill:currentColor"/>
</svg>
